X:1
T:Title
%%score { ( 1 3 ) | ( 2 4 ) }
L:1/8
M:4/4
K:Ab
V:1 treble nm="Grand Piano"
V:3 treble 
V:2 bass 
V:4 bass 
V:1
 z4 z2[Q:1/4=100] [CE][DF] | [CE]2 [Ec]2 [Ec]2 [DB][CA] | [Ec]2 [CA]2 [CE]2 [CE][CE] | %3
 [DF]2 [FA]2 [Fd]2 [Fd]2 | [Ec]6 cd | c2 B2 [Ge]2 [DB][Ec] | [DB]2 [CA]2 [Ec]2 [Ec][Ec] | %7
 [EB][EB][=Dc][DA] [DG]2 [DF]2 |[M:3/4] E6 |[M:1/4] [Ge]2 |[M:4/4] [Ge][Gd]Fd c2 B2 | A4 z4 | %12
 [A,DF][FA][FA][FA] [Fd]2 [Fd]2 | [Ec]6[K:bass][K:treble] z2 | cBBA [Ec][CA][CE][CE] | %15
 z2 [Fd]2 z4 | [Fe][Fd][DF][Fd] [Ec]2 [DB]2 |[M:3/4] [CA]6 |] %18
V:2
 z4 z2 [A,,A,][A,,A,] | [A,,A,]2 [A,,A,]2 [A,,A,]2 [A,,A,][A,,A,] | %2
 [A,,A,]2 [A,,E,]2 [A,,A,]2 [A,,A,][A,,A,] | [D,A,]2 [D,D]2 [D,A,]2 [D,A,]2 | %4
 [A,,A,]6[K:treble] [A,E][A,F] | [E,A,E]2 [E,G,D]2 [E,B,]2 [E,G,][E,G,] | %6
 [A,,A,]2 [A,,E,]2 [A,,A,]2 [A,,A,][A,,A,] | [B,,G,][B,,G,][B,,F,][B,,F,] [B,,B,]2 [B,,A,]2 | %8
[M:3/4] [E,G,]6 |[M:1/4] [E,B,]2 |[M:4/4] [E,B,][E,B,][E,G,D][E,G,E] [E,A,E]2 [E,G,D]2 | %11
 z4 E2 A,,2 | D,[D,D][D,D][D,D] [D,A,]2 [D,A,]2 | A,4 z2 [A,E]2 | %14
 [E,A,E][E,G,D][E,G,D][E,G,C] [A,,A,][A,,A,][A,,A,][A,,A,] | [D,A,]2 .[D,A,]2 [A,E]2 [C,A,]2 | %16
 [D,A,][D,A,][D,A,][D,A,] [E,A,]2 [E,G,]2 |[M:3/4] [A,,A,]6 |] %18
V:3
 x8 | x8 | x8 | x8 | x8 | x8 | x8 | x8 |[M:3/4] x6 |[M:1/4] x2 |[M:4/4] x8 | [A,C]6 [A,CE]2 | x8 | %13
 z[K:bass] A,,C,E, A,2[K:treble] c2 | x8 | [DF]2 z F, c2 [_Ge]2 | x8 |[M:3/4] x6 |] %18
V:4
 x8 | x8 | x8 | x8 | x6[K:treble] x2 | x8 | x8 | x8 |[M:3/4] x6 |[M:1/4] x2 |[M:4/4] x8 | A,,6 z2 | %12
 x8 | .A,,2 z2 z4 | x8 | x8 | x8 |[M:3/4] x6 |] %18

